icons/breezeDark/actions/24/configure-shortcuts.svg

<svg viewBox="0 0 24 24" xmlns="http://www.w3.org/2000/svg"><path d="m12.5 4c-1.213861 0-2.219022.8559279-2.449219 2h-6.050781v1h6.050781c.230197 1.1440721 1.235358 2 2.449219 2s2.219022-.8559279 2.449219-2h5.050781v-1h-5.050781c-.230197-1.1440721-1.235358-2-2.449219-2zm-6 11c-1.3850001 0-2.5 1.115-2.5 2.5s1.1149999 2.5 2.5 2.5c1.2138604 0 2.2190222-.855928 2.4492188-2h11.0507812v-1h-11.0507812c-.2301965-1.144072-1.2353584-2-2.4492188-2zm0 1c.8310001 0 1.5.669 1.5 1.5s-.6689999 1.5-1.5 1.5-1.5-.669-1.5-1.5.6689999-1.5 1.5-1.5z" fill="#c0c0c0"/></svg>

<svg xmlns="http://www.w3.org/2000/svg" viewBox="0 0 24 24">
  <defs id="defs3051">
    <style type="text/css" id="current-color-scheme">
      .ColorScheme-Text {
        color:#c0c0c0;
      }
      </style>
  </defs>
 <path style="fill:currentColor;fill-opacity:1;stroke:none" 
     d="M 12.5 4 C 11.286139 4 10.280978 4.8559279 10.050781 6 L 4 6 L 4 7 L 10.050781 7 C 10.280978 8.1440721 11.286139 9 12.5 9 C 13.713861 9 14.719022 8.1440721 14.949219 7 L 20 7 L 20 6 L 14.949219 6 C 14.719022 4.8559279 13.713861 4 12.5 4 z M 6.5 15 C 5.1149999 15 4 16.115 4 17.5 C 4 18.885 5.1149999 20 6.5 20 C 7.7138604 20 8.7190222 19.144072 8.9492188 18 L 20 18 L 20 17 L 8.9492188 17 C 8.7190223 15.855928 7.7138604 15 6.5 15 z M 6.5 16 C 7.3310001 16 8 16.669 8 17.5 C 8 18.331 7.3310001 19 6.5 19 C 5.6689999 19 5 18.331 5 17.5 C 5 16.669 5.6689999 16 6.5 16 z "
     class="ColorScheme-Text"
     />
</svg>
